assets/img/nysds_logo_long.svg

<svg width="404" height="46" viewBox="0 0 404 46" fill="none" xmlns="http://www.w3.org/2000/svg">
<path d="M67.5799 36.0853L52.7036 15.1277V36.0853H46.0608V4.88278H52.8908L67.3461 25.0921V4.88278H73.9889V36.0853H67.5799Z" fill="#1B1B1B"/>
<path d="M87.0877 36.0853V23.3141L75.0653 4.88278H82.6435L90.4094 17.4201L98.0814 4.88278H105.66L93.7305 23.3141V36.0853H87.0877Z" fill="#1B1B1B"/>
<path d="M106.97 26.6358C109.169 28.9281 112.584 30.8462 116.888 30.8462C120.536 30.8462 122.314 29.1148 122.314 27.3373C122.314 24.9983 119.601 24.2029 115.999 23.3608C110.9 22.1915 104.35 20.7879 104.35 13.8179C104.35 8.62546 108.841 4.41507 116.186 4.41507C121.145 4.41507 125.261 5.91204 128.348 8.76546L124.653 13.6307C122.127 11.2917 118.759 10.2158 115.718 10.2158C112.724 10.2158 111.134 11.5256 111.134 13.3969C111.134 15.5021 113.753 16.157 117.355 16.9991C122.501 18.1683 129.051 19.712 129.051 26.6358C129.051 32.3426 124.981 36.6468 116.56 36.6468C110.572 36.6468 106.268 34.635 103.321 31.6877L106.97 26.6358Z" fill="#1B1B1B"/>
<path d="M140.353 36.0853V5.44336H150.827C160.337 5.44336 166.538 12.1044 166.538 20.7874C166.538 29.5161 160.337 36.0853 150.827 36.0853H140.353ZM144.166 32.6856H150.827C158.269 32.6856 162.588 27.3566 162.588 20.7874C162.588 14.172 158.407 8.84261 150.827 8.84261H144.166V32.6856Z" fill="#1B1B1B"/>
<path d="M179.585 13.3452C186.293 13.3452 190.244 18.5823 190.244 25.2433V26.1164H172.281C172.557 30.2968 175.497 33.7884 180.275 33.7884C182.801 33.7884 185.374 32.7779 187.12 30.9862L188.774 33.237C186.569 35.4421 183.582 36.6367 179.953 36.6367C173.383 36.6367 168.652 31.9049 168.652 24.9679C168.652 18.5361 173.246 13.3452 179.585 13.3452ZM172.281 23.5896H186.844C186.798 20.2817 184.593 16.193 179.54 16.193C174.808 16.193 172.465 20.1899 172.281 23.5896Z" fill="#1B1B1B"/>
<path d="M193.367 30.6646C194.837 32.364 197.639 33.834 200.671 33.834C204.071 33.834 205.908 32.3183 205.908 30.1588C205.908 27.7244 203.198 26.9432 200.212 26.2082C196.445 25.3351 192.172 24.3247 192.172 19.7308C192.172 16.2854 195.158 13.3452 200.441 13.3452C204.209 13.3452 206.873 14.7691 208.665 16.5608L207.057 18.9496C205.725 17.3415 203.29 16.1474 200.441 16.1474C197.409 16.1474 195.526 17.5256 195.526 19.501C195.526 21.6599 198.053 22.3493 200.947 23.0382C204.806 23.9112 209.262 25.0135 209.262 29.9295C209.262 33.6504 206.276 36.6367 200.533 36.6367C196.904 36.6367 193.826 35.5339 191.575 33.1452L193.367 30.6646Z" fill="#1B1B1B"/>
<path d="M212.294 7.83207C212.294 6.54562 213.351 5.53513 214.591 5.53513C215.878 5.53513 216.935 6.54562 216.935 7.83207C216.935 9.11852 215.878 10.1752 214.591 10.1752C213.351 10.1752 212.294 9.11852 212.294 7.83207ZM212.892 36.0853V13.896H216.337V36.0853H212.892Z" fill="#1B1B1B"/>
<path d="M222.676 39.2091C224.514 41.4143 226.719 42.2411 229.889 42.2411C233.564 42.2411 237.01 40.4494 237.01 35.5801V32.4101C235.402 34.6614 232.692 36.3608 229.567 36.3608C223.779 36.3608 219.69 32.0423 219.69 24.8761C219.69 17.7554 223.733 13.3452 229.567 13.3452C232.554 13.3452 235.218 14.8153 237.01 17.2497V13.8961H240.455V35.4421C240.455 42.7925 235.31 45.0895 229.889 45.0895C226.122 45.0895 223.549 44.3544 220.931 41.782L222.676 39.2091ZM237.01 20.0062C235.815 18.0771 233.151 16.4228 230.394 16.4228C225.938 16.4228 223.273 19.9606 223.273 24.8761C223.273 29.7454 225.938 33.3288 230.394 33.3288C233.151 33.3288 235.815 31.6289 237.01 29.6997V20.0062Z" fill="#1B1B1B"/>
<path d="M259.612 36.0853V21.5681C259.612 17.6631 257.636 16.4228 254.65 16.4228C251.94 16.4228 249.367 18.0771 248.081 19.8682V36.0853H244.635V13.8961H248.081V17.1122C249.643 15.2744 252.675 13.3452 255.983 13.3452C260.623 13.3452 263.058 15.6878 263.058 20.5115V36.0853H259.612Z" fill="#1B1B1B"/>
<path d="M275.001 28.8729C277.023 31.1236 280.33 33.2369 284.649 33.2369C290.116 33.2369 291.861 30.2968 291.861 27.9537C291.861 24.2785 288.14 23.268 284.097 22.1657C279.182 20.8792 273.715 19.5009 273.715 13.4826C273.715 8.42915 278.217 4.98373 284.235 4.98373C288.921 4.98373 292.551 6.54564 295.123 9.25652L292.826 12.0587C290.529 9.53197 287.313 8.38349 283.96 8.38349C280.285 8.38349 277.666 10.3588 277.666 13.2528C277.666 16.331 281.203 17.2497 285.108 18.3063C290.116 19.6389 295.812 21.2008 295.812 27.6321C295.812 32.0885 292.78 36.6367 284.511 36.6367C279.182 36.6367 275.277 34.6152 272.75 31.7669L275.001 28.8729Z" fill="#1B1B1B"/>
<path d="M297.742 41.644C298.247 41.8738 299.074 42.0118 299.625 42.0118C301.141 42.0118 302.152 41.506 302.933 39.6687L304.403 36.3151L295.123 13.8961H298.844L306.241 32.0885L313.591 13.8961H317.358L306.241 40.5874C304.909 43.803 302.657 45.0438 299.717 45.0894C298.982 45.0894 297.834 44.952 297.191 44.7678L297.742 41.644Z" fill="#1B1B1B"/>
<path d="M318.92 30.6646C320.39 32.364 323.193 33.834 326.225 33.834C329.624 33.834 331.462 32.3183 331.462 30.1588C331.462 27.7244 328.751 26.9432 325.765 26.2082C321.998 25.3351 317.726 24.3247 317.726 19.7308C317.726 16.2854 320.711 13.3452 325.995 13.3452C329.762 13.3452 332.427 14.7691 334.218 16.5608L332.61 18.9496C331.278 17.3415 328.843 16.1474 325.995 16.1474C322.963 16.1474 321.079 17.5256 321.079 19.501C321.079 21.6599 323.606 22.3493 326.5 23.0382C330.359 23.9112 334.815 25.0135 334.815 29.9295C334.815 33.6504 331.829 36.6367 326.087 36.6367C322.458 36.6367 319.379 35.5339 317.129 33.1452L318.92 30.6646Z" fill="#1B1B1B"/>
<path d="M339.823 31.4453V16.9281H336.147V13.8961H339.823V7.83209H343.268V13.8961H347.77V16.9281H343.268V30.7102C343.268 32.3639 344.003 33.5586 345.519 33.5586C346.484 33.5586 347.402 33.1451 347.862 32.6399L348.872 35.2123C348 36.0391 346.76 36.6367 344.738 36.6367C341.476 36.6367 339.823 34.7532 339.823 31.4453Z" fill="#1B1B1B"/>
<path d="M360.173 13.3452C366.881 13.3452 370.832 18.5823 370.832 25.2433V26.1164H352.869C353.145 30.2968 356.085 33.7884 360.863 33.7884C363.39 33.7884 365.962 32.7779 367.708 30.9862L369.362 33.237C367.157 35.4421 364.17 36.6367 360.541 36.6367C353.971 36.6367 349.24 31.9049 349.24 24.9679C349.24 18.5361 353.834 13.3452 360.173 13.3452ZM352.869 23.5896H367.432C367.386 20.2817 365.181 16.193 360.128 16.193C355.396 16.193 353.053 20.1899 352.869 23.5896Z" fill="#1B1B1B"/>
<path d="M400.555 36.0853V21.0172C400.555 18.2145 399.314 16.4228 396.466 16.4228C394.169 16.4228 391.734 18.0771 390.586 19.8226V36.0853H387.14V21.0172C387.14 18.2145 385.946 16.4228 383.052 16.4228C380.8 16.4228 378.411 18.0771 377.217 19.8682V36.0853H373.771V13.8961H377.217V17.1122C378.136 15.6878 381.122 13.3452 384.384 13.3452C387.783 13.3452 389.713 15.1825 390.356 17.4795C391.596 15.458 394.582 13.3452 397.798 13.3452C401.841 13.3452 404 15.596 404 20.0524V36.0853H400.555Z" fill="#1B1B1B"/>
<path d="M14.86 20.9145L8.4002 14.4522V8.81431H30.9431L39.5995 17.5307C38.4391 7.65897 30.0488 0 19.869 0C8.89564 0 0 8.89897 0 19.8763C0 24.352 1.47948 28.4814 3.97479 31.8039" fill="#245FC2"/>
<path d="M8.40021 14.4373H21.3198L14.86 20.8996L8.40021 14.4373ZM30.9431 8.79944V31.3508H25.3075V18.4214L7.96152 35.7739C11.2799 38.2628 15.4021 39.7379 19.869 39.7379C30.8422 39.7379 39.7379 30.839 39.7379 19.8615C39.7379 19.0657 39.6859 18.2825 39.5949 17.5112L30.9431 8.79944Z" fill="#0E324F"/>
</svg>

<svg xmlns="http://www.w3.org/2000/svg" width="404" height="46" fill="none" viewBox="0 0 404 46"><path fill="#1b1b1b" d="M67.58 36.085 52.704 15.128v20.957H46.06V4.883h6.83l14.455 20.21V4.882h6.643v31.202zM87.088 36.085v-12.77L75.065 4.882h7.579l7.765 12.537 7.672-12.537h7.579L93.73 23.314v12.771zM106.97 26.636a13.68 13.68 0 0 0 9.918 4.21c3.648 0 5.426-1.731 5.426-3.509 0-2.339-2.713-3.134-6.315-3.976-5.099-1.17-11.649-2.573-11.649-9.543 0-5.193 4.491-9.403 11.836-9.403 4.959 0 9.075 1.497 12.162 4.35l-3.695 4.866c-2.526-2.34-5.894-3.415-8.935-3.415-2.994 0-4.584 1.31-4.584 3.18 0 2.106 2.619 2.761 6.221 3.603 5.146 1.17 11.696 2.713 11.696 9.637 0 5.707-4.07 10.01-12.491 10.01-5.988 0-10.292-2.011-13.239-4.958zM140.353 36.085V5.443h10.474c9.51 0 15.711 6.661 15.711 15.344 0 8.73-6.201 15.298-15.711 15.298zm3.813-3.4h6.661c7.442 0 11.761-5.328 11.761-11.898 0-6.615-4.181-11.944-11.761-11.944h-6.661zM179.585 13.345c6.708 0 10.659 5.237 10.659 11.898v.873h-17.963c.276 4.18 3.216 7.672 7.994 7.672 2.526 0 5.099-1.01 6.845-2.802l1.654 2.251c-2.205 2.205-5.192 3.4-8.821 3.4-6.57 0-11.301-4.732-11.301-11.67 0-6.43 4.594-11.622 10.933-11.622m-7.304 10.245h14.563c-.046-3.308-2.251-7.397-7.304-7.397-4.732 0-7.075 3.997-7.259 7.397M193.367 30.665c1.47 1.699 4.272 3.169 7.304 3.169 3.4 0 5.237-1.516 5.237-3.675 0-2.435-2.71-3.216-5.696-3.95-3.767-.874-8.04-1.884-8.04-6.478 0-3.446 2.986-6.386 8.269-6.386 3.768 0 6.432 1.424 8.224 3.216l-1.608 2.389c-1.332-1.608-3.767-2.803-6.616-2.803-3.032 0-4.915 1.379-4.915 3.354 0 2.159 2.527 2.848 5.421 3.537 3.859.873 8.315 1.976 8.315 6.892 0 3.72-2.986 6.707-8.729 6.707-3.629 0-6.707-1.103-8.958-3.492zM212.294 7.832a2.304 2.304 0 0 1 2.297-2.297c1.287 0 2.344 1.01 2.344 2.297a2.353 2.353 0 0 1-2.344 2.343c-1.24 0-2.297-1.056-2.297-2.343m.598 28.253V13.896h3.445v22.19zM222.676 39.21c1.838 2.204 4.043 3.031 7.213 3.031 3.675 0 7.121-1.792 7.121-6.66v-3.17c-1.608 2.25-4.318 3.95-7.443 3.95-5.788 0-9.877-4.319-9.877-11.485 0-7.12 4.043-11.53 9.877-11.53 2.987 0 5.651 1.47 7.443 3.904v-3.354h3.445v21.546c0 7.35-5.145 9.648-10.566 9.648-3.767 0-6.34-.736-8.958-3.308zm14.334-19.204c-1.195-1.929-3.859-3.583-6.616-3.583-4.456 0-7.121 3.538-7.121 8.453 0 4.87 2.665 8.453 7.121 8.453 2.757 0 5.421-1.7 6.616-3.63zM259.612 36.085V21.568c0-3.905-1.976-5.145-4.962-5.145-2.71 0-5.283 1.654-6.569 3.445v16.217h-3.446V13.896h3.446v3.216c1.562-1.838 4.594-3.767 7.902-3.767 4.64 0 7.075 2.343 7.075 7.167v15.573zM275.001 28.873c2.022 2.25 5.329 4.364 9.648 4.364 5.467 0 7.212-2.94 7.212-5.283 0-3.675-3.721-4.686-7.764-5.788-4.915-1.287-10.382-2.665-10.382-8.683 0-5.054 4.502-8.5 10.52-8.5 4.686 0 8.316 1.563 10.888 4.274l-2.297 2.802c-2.297-2.527-5.513-3.676-8.866-3.676-3.675 0-6.294 1.976-6.294 4.87 0 3.078 3.537 3.997 7.442 5.053 5.008 1.333 10.704 2.895 10.704 9.326 0 4.457-3.032 9.005-11.301 9.005-5.329 0-9.234-2.022-11.761-4.87z"/><path fill="#1b1b1b" d="M297.742 41.644c.505.23 1.332.368 1.883.368 1.516 0 2.527-.506 3.308-2.343l1.47-3.354-9.28-22.419h3.721l7.397 18.193 7.35-18.193h3.767l-11.117 26.691c-1.332 3.216-3.584 4.457-6.524 4.502-.735 0-1.883-.137-2.526-.321zM318.92 30.665c1.47 1.699 4.273 3.169 7.305 3.169 3.399 0 5.237-1.516 5.237-3.675 0-2.435-2.711-3.216-5.697-3.95-3.767-.874-8.039-1.884-8.039-6.478 0-3.446 2.985-6.386 8.269-6.386 3.767 0 6.432 1.424 8.223 3.216l-1.608 2.389c-1.332-1.608-3.767-2.803-6.615-2.803-3.032 0-4.916 1.379-4.916 3.354 0 2.159 2.527 2.848 5.421 3.537 3.859.873 8.315 1.976 8.315 6.892 0 3.72-2.986 6.707-8.728 6.707-3.629 0-6.708-1.103-8.958-3.492zM339.823 31.445V16.928h-3.676v-3.032h3.676V7.832h3.445v6.064h4.502v3.032h-4.502V30.71c0 1.654.735 2.849 2.251 2.849.965 0 1.883-.414 2.343-.92l1.01 2.573c-.872.827-2.112 1.425-4.134 1.425-3.262 0-4.915-1.884-4.915-5.192M360.173 13.345c6.708 0 10.659 5.237 10.659 11.898v.873h-17.963c.276 4.18 3.216 7.672 7.994 7.672 2.527 0 5.099-1.01 6.845-2.802l1.654 2.251c-2.205 2.205-5.192 3.4-8.821 3.4-6.57 0-11.301-4.732-11.301-11.67 0-6.43 4.594-11.622 10.933-11.622m-7.304 10.245h14.563c-.046-3.308-2.251-7.397-7.304-7.397-4.732 0-7.075 3.997-7.259 7.397M400.555 36.085V21.017c0-2.802-1.241-4.594-4.089-4.594-2.297 0-4.732 1.654-5.88 3.4v16.262h-3.446V21.017c0-2.802-1.194-4.594-4.088-4.594-2.252 0-4.641 1.654-5.835 3.445v16.217h-3.446V13.896h3.446v3.216c.919-1.424 3.905-3.767 7.167-3.767 3.399 0 5.329 1.837 5.972 4.135 1.24-2.022 4.226-4.135 7.442-4.135 4.043 0 6.202 2.251 6.202 6.707v16.033z"/><path fill="#245fc2" d="M14.86 20.915 8.4 14.452V8.814h22.543l8.656 8.717C38.44 7.659 30.05 0 19.87 0 8.896 0 0 8.899 0 19.876c0 4.476 1.48 8.605 3.975 11.928"/><path fill="#0e324f" d="M8.4 14.437h12.92L14.86 20.9zM30.943 8.8v22.552h-5.635V18.42L7.962 35.774a19.78 19.78 0 0 0 11.907 3.964c10.973 0 19.869-8.899 19.869-19.876 0-.796-.052-1.58-.143-2.35z"/></svg>
